X:473
T:Herr Mannelig
Z:Jack Campin, http://www.campin.me.uk/
F:Jack Campin's Nine-Note Tunebook
% last edit 03-02-2013
G:old Swedish ballad
S:YouTube video http://www.youtube.com/watch?v=9SSSYx6Jl7U
N:http://www.youtube.com/watch?v=HB27Az3xIpU for the text
M:4/4
L:1/8
Q:1/4=132
K:DMin
A|ABAG F2 DE|FGFE D2DE|        F2  FF    G2 FG|        A4 F3
A|ABAG F2 DE|FGFE D2DE|        F4        G>GFG|        A4 F3
A|ABAG FF DE|FGFE D2DE|        F4        G2 FG|        A4 c2z
A|ABAG F2 DE|FGFE D2DE|[M:2/4] FG- GF/E/      |[M:4/4] D4 z3|]

